X:1
T:Beautiful Eastertide
T:Beautiful Eastertide
T:Joseph Lincoln Hall
T:Jennie Morton, 1900
T:Public Domain Courtesy of the Cyber Hymnal™
T:Public Domain Courtesy of the Cyber Hymnal™
C:Joseph Lincoln Hall
Z:Public Domain
Z:Courtesy of the Cyber Hymnal™
%%score ( 1 2 ) 3
L:1/8
Q:1/4=87
M:6/8
K:Bb
V:1 treble 
V:2 treble 
V:3 bass 
V:1
 [DF] | [DF][DF][DF] [DF][B,D][DF] | [EG][EB][EG] [DF]2 [DF] | [Ec][Ec][Ec] [Ec][Fd][Ec] | %4
w: 1.~O|wel- come, bright morn- ing, we|love thy sweet light, For|past is the dark- ness of|
w: 2.~Re-|joice! O ye Gen- tiles, that|death is no more, The|grave’s dread- ful tri- umph for-|
w: 3.~The|day of re- joic- ing for|man- kind is here, The|grave, robbed of ter- ror, no|
 [Dc][DB][EG] [DF]2 [DF] | [DF][DF][DF] [DF][B,D][DF] | [EG][EG][EB] [Fd]2 [Fd] | %7
w: sin’s bit- ter night; We|lift our glad voic- es in|tri- umph to- day, Our|
w: ev- er is o’er; Shout!|shout the glad an- them with|voice loud and strong, Our|
w: long- er hath fear; Then|lift your glad voic- es in|tri- umph to- day, Our|
 [Ed][Ec][EA] [EG]2 [EA] | [DB]6 |:"^Refrain" [DF]3"^Faster" [DF][DF][DF] | [EG]2 [EB] [Dd]2 [Fd] | %11
w: glor- ious Re- deem- er|lives.|||
w: glor- ious Re- deem- er|lives.|O beau- ti- ful|Eas- ter- tide, Thy|
w: glor- ious Re- deem- er|lives.|||
 [Ed][Ec][EA] [EG]2 [FA] | [Dc][DB][EG] [DF]3 |1 [DF]3 [DF][DF][DF] | [EG]2 [EB] [Dd]2 d | %15
w: ||||
w: won- der- ful mes- sage|send far and wide;|O beau- ti- ful|Eas- ter- tide, We|
w: ||||
 dBG A2 B | [DG]6 :|2 [FB]3 [FB][FB][FB] || [=EB]2 [EB] [Fd]2 [Fd] | [Ed][Ec][EA] [EG]2 [EA] | %20
w: |||||
w: hail, thee, O joy- ous|day.|O beau- ti- ful|Eas- ter- tide, We|love thy re- ful- gent|
w: |||||
 [DB]3- [DB]2 |] %21
w: |
w: ray. *|
w: |
V:2
 x | x6 | x6 | x6 | x6 | x6 | x6 | x6 | x6 |: x6 | x6 | x6 | x6 |1 x6 | x5 d | dBG A2 B | x6 :|2 %17
 x6 || x6 | x6 | x5 |] %21
V:3
 [B,,B,] | [B,,B,][B,,B,][B,,B,] [B,,B,][B,,F,][B,,B,] | [E,B,][E,G,][E,B,] [B,,B,]2 [B,,B,] | %3
 [F,A,][F,A,][F,A,] [F,A,][F,A,][F,A,] | [B,,B,][B,,F,][B,,B,] [B,,B,]2 [B,,B,] | %5
 [B,,B,][B,,B,][B,,B,] [B,,B,][B,,F,][B,,B,] | [E,B,][E,B,][E,G,] [B,,B,]2 [B,,B,] | %7
 [F,A,][F,A,][F,C] [F,C]2 [F,C] | [B,,B,]6 |: [B,,B,]3 [B,,B,][B,,B,][B,,B,] | %10
 [B,,B,]2 [B,,G,] [B,,F,]2 [B,,B,] | [F,A,][F,A,][F,C] [F,C]2 [F,C] | %12
 [B,,B,][B,,F,][B,,B,] [B,,B,]3 |1 [B,,B,]3 [B,,B,][B,,B,][B,,B,] | [B,,B,]2 [B,,G,] [B,,F,]2 D | %15
 DB,G, A,2 B, | [G,B,]6 :|2 [B,D]3 [_A,D][A,D][A,D] || [G,_D]2 [_G,D] [F,B,]2 [F,B,] | %19
 [F,A,][F,A,][F,C] [F,C]2 [F,C] | [B,,B,]3- [B,,B,]2 |] %21

